icons/svg/seamark/buoy_redwhite_pillar_horizontal.svg

<?xml version="1.0" encoding="UTF-8" standalone="no"?>
<svg
   xmlns:dc="http://purl.org/dc/elements/1.1/"
   xmlns:cc="http://creativecommons.org/ns#"
   xmlns:rdf="http://www.w3.org/1999/02/22-rdf-syntax-ns#"
   xmlns:svg="http://www.w3.org/2000/svg"
   xmlns="http://www.w3.org/2000/svg"
   xmlns:sodipodi="http://sodipodi.sourceforge.net/DTD/sodipodi-0.dtd"
   xmlns:inkscape="http://www.inkscape.org/namespaces/inkscape"
   width="580"
   height="580"
   id="svg2"
   version="1.1"
   inkscape:version="0.92.3 (2405546, 2018-03-11)"
   sodipodi:docname="buoy_redwhite_pillar_horizontal.svg">
  <defs
     id="defs13">
    <inkscape:path-effect
       effect="gears"
       id="path-effect3774"
       is_visible="true"
       teeth="6"
       phi="-1.2" />
    <inkscape:path-effect
       effect="bend_path"
       id="path-effect3772"
       is_visible="false"
       bendpath="m 95.790098,316.51174 c 144.429032,-206.42506 223.313032,-11.7428 339.548092,0"
       prop_scale="1.19"
       scale_y_rel="false"
       vertical="false"
       bendpath-nodetypes="cc" />
  </defs>
  <sodipodi:namedview
     pagecolor="#ffffff"
     bordercolor="#666666"
     borderopacity="1"
     objecttolerance="10"
     gridtolerance="10"
     guidetolerance="10"
     inkscape:pageopacity="0"
     inkscape:pageshadow="2"
     inkscape:window-width="1920"
     inkscape:window-height="1051"
     id="namedview11"
     showgrid="false"
     inkscape:zoom="0.8137931"
     inkscape:cx="111.23352"
     inkscape:cy="305.81009"
     inkscape:window-x="0"
     inkscape:window-y="0"
     inkscape:window-maximized="1"
     inkscape:current-layer="svg2" />
  <metadata
     id="metadata2975">image/svg+xmlen<rdf:RDF>
  <cc:Work
     rdf:about="">
    <dc:format>image/svg+xml</dc:format>
    <dc:type
       rdf:resource="http://purl.org/dc/dcmitype/StillImage" />
    <dc:title />
  </cc:Work>
</rdf:RDF>
</metadata>
  <path
     sodipodi:type="inkscape:offset"
     inkscape:radius="19.747229"
     inkscape:original="M 314.34375 207.84375 L 272.4375 308.6875 L 238.96875 393.40625 L 238.9375 393.4375 L 236.84375 396.15625 L 230.75 404.03125 L 230.71875 404.0625 L 216.875 422.03125 L 216.9375 422.03125 L 154.15625 503.875 L 99.84375 503.875 L 99.84375 528.875 L 241.09375 528.875 C 241.12885 528.99107 241.18275 529.10308 241.21875 529.21875 C 241.43063 529.89871 241.63118 530.55308 241.875 531.21875 C 241.88 531.23115 241.90175 531.2377 241.90625 531.25 C 242.64865 533.27111 243.54269 535.22172 244.5625 537.09375 C 246.25478 540.20021 248.32536 543.08565 250.6875 545.6875 C 251.16635 546.21494 251.65277 546.71495 252.15625 547.21875 C 260.11684 555.1845 271.06193 560.15625 283.125 560.15625 C 292.18068 560.15625 300.61091 557.35422 307.625 552.59375 C 309.95937 551.00941 312.13732 549.20963 314.125 547.21875 C 314.62791 546.71503 315.11545 546.21482 315.59375 545.6875 C 316.06312 545.17002 316.52401 544.63303 316.96875 544.09375 C 317.3863 543.58743 317.79244 543.08724 318.1875 542.5625 C 318.233 542.502 318.2673 542.43573 318.3125 542.375 C 318.3606 542.3106 318.42101 542.25214 318.46875 542.1875 C 319.62126 540.62219 320.68424 538.96178 321.625 537.25 C 321.6542 537.1969 321.68985 537.14694 321.71875 537.09375 C 321.72985 537.07345 321.739 537.05155 321.75 537.03125 C 321.7611 537.01085 321.77025 536.98925 321.78125 536.96875 C 322.09207 536.3946 322.40191 535.80768 322.6875 535.21875 C 322.6915 535.20975 322.6835 535.196 322.6875 535.1875 C 322.99785 534.54455 323.2831 533.90957 323.5625 533.25 C 323.84142 532.59157 324.09663 531.92404 324.34375 531.25 C 324.58733 530.58562 324.81948 529.89738 325.03125 529.21875 C 325.06785 529.10152 325.12065 528.99264 325.15625 528.875 L 455.25 528.875 L 455.25 503.875 L 385.96875 503.875 L 373.625 445.375 L 368.875 422.25 L 374.96875 324.53125 L 381.03125 223.875 L 314.34375 207.84375 z "
     style="opacity:0.42608696;color:#000000;fill:#8d8d8d;fill-opacity:1;fill-rule:nonzero;stroke:#a35151;stroke-width:0;stroke-linecap:round;stroke-linejoin:miter;stroke-miterlimit:4;stroke-opacity:1;stroke-dasharray:none;stroke-dashoffset:0;marker:none;visibility:visible;display:inline;overflow:visible;enable-background:accumulate"
     id="path3056"
     d="m 313.09375,188.125 a 19.749203,19.749203 0 0 0 -17,12.15625 L 254.1875,301.125 a 19.749203,19.749203 0 0 0 -0.125,0.3125 l -32.40625,82.0625 -0.4375,0.5625 -0.0312,0.0312 -5.75,7.46875 -0.3125,0.375 A 19.749203,19.749203 0 0 0 215.0625,392 l -13.84375,17.96875 a 19.749203,19.749203 0 0 0 -0.8125,1.15625 l -56,73 -44.5625,0 a 19.749203,19.749203 0 0 0 -19.75,19.75 l 0,25 a 19.749203,19.749203 0 0 0 19.75,19.75 l 128.6875,0 c 2.21201,3.70607 4.68822,7.21221 7.53125,10.34375 0.7775,0.8564 1.49886,1.59221 2.125,2.21875 11.45388,11.46131 27.4486,18.71875 44.9375,18.71875 13.12917,0 25.47545,-4.10145 35.59375,-10.96875 3.3618,-2.28166 6.49572,-4.89733 9.375,-7.78125 0.61264,-0.61363 1.33539,-1.31697 2.125,-2.1875 0.71483,-0.7881 1.3885,-1.57101 2,-2.3125 0.48012,-0.58219 1.07022,-1.31583 1.75,-2.21875 1.17139,-1.55757 0.92707,-1.27856 0.15625,-0.25 -0.15593,0.20877 0.14618,-0.18621 0.0312,-0.0312 -0.81884,1.10407 -1.03758,1.40875 0.1875,-0.25 a 19.749203,19.749203 0 0 0 0.0312,0 c 1.23212,-1.67344 2.30502,-3.48537 3.375,-5.28125 l 117.5,0 A 19.749203,19.749203 0 0 0 475,528.875 l 0,-25 a 19.749203,19.749203 0 0 0 -19.75,-19.75 l -53.28125,0 -9,-42.71875 -0.0312,-0.0937 -4.1875,-20.4375 5.9375,-95.125 a 19.749203,19.749203 0 0 0 0,-0.0312 L 400.75,225.0625 a 19.749203,19.749203 0 0 0 -15.09375,-20.375 l -66.6875,-16.03125 a 19.749203,19.749203 0 0 0 -5.875,-0.53125 z M 342.125,531.75 c -0.002,-0.0139 0.46829,0.84017 0.625,2.4375 l -0.0937,-0.0312 c -0.16641,-1.37042 -0.52894,-2.39323 -0.53125,-2.40625 z" />
  <path
     style="fill:#fefefe;fill-opacity:1;stroke:#a35151;font-variant-east_asian:normal;opacity:1;vector-effect:none;stroke-width:0;stroke-linecap:round;stroke-linejoin:miter;stroke-miterlimit:4;stroke-dasharray:none;stroke-dashoffset:0;stroke-opacity:1;marker:none"
     d="m 230.82858,404.203 -87.79094,114.46367 96.34088,0.43716 c 1.38862,22.8971 20.5922,41.24741 43.81894,41.24741 23.12276,0 42.25233,-18.18512 43.79323,-40.93883 l 62.29187,0.28287 -17.87127,-84.88394 z"
     id="path3822"
     inkscape:connector-curvature="0"
     sodipodi:nodetypes="cccscccc" />
  <path
     inkscape:connector-curvature="0"
     style="fill:#e80000;fill-opacity:1;stroke:none;font-variant-east_asian:normal;opacity:1;vector-effect:none;stroke-width:0;stroke-linecap:butt;stroke-linejoin:miter;stroke-miterlimit:4;stroke-dasharray:none;stroke-dashoffset:0;stroke-opacity:1;marker:none"
     d="m 314.42405,208.02902 -41.90817,100.8422 -33.46747,84.72262 -8.26029,10.64469 140.60909,30.54121 -2.48229,-11.9646 6.11315,-98.0942 6.06285,-100.65252"
     id="path3822-6-4"
     sodipodi:nodetypes="cccccccc" />
  <path
     inkscape:connector-curvature="0"
     style="fill:#fefefe;fill-opacity:1;stroke:#a35151;font-variant-east_asian:normal;opacity:1;vector-effect:none;stroke-width:0;stroke-linecap:round;stroke-linejoin:miter;stroke-miterlimit:4;stroke-dasharray:none;stroke-dashoffset:0;stroke-opacity:1;marker:none"
     d="m 254.52011,354.42492 -15.52214,39.18097 -22.05884,28.62171 159.03299,34.48261 -7.05627,-34.40087 2.83753,-44.85167"
     id="path3822-6"
     sodipodi:nodetypes="cccccc" />
  <path
     style="fill:none;stroke:#000000;stroke-width:25;stroke-linecap:butt;stroke-linejoin:miter;stroke-opacity:1;stroke-miterlimit:4;stroke-dasharray:none"
     d="m 99.923776,516.57012 355.381084,0"
     id="path3759"
     inkscape:connector-curvature="0" />
  <path
     sodipodi:type="arc"
     style="color:#000000;fill:#fefefe;fill-opacity:1;stroke:#000000;stroke-width:25;stroke-linecap:round;stroke-linejoin:round;stroke-miterlimit:10;stroke-opacity:1;stroke-dasharray:none;stroke-dashoffset:0;marker:none;visibility:visible;display:inline;overflow:visible;enable-background:accumulate"
     id="path3759-1"
     sodipodi:cx="210.27438"
     sodipodi:cy="76.036606"
     sodipodi:rx="40.838413"
     sodipodi:ry="40.838413"
     d="m 251.1128,76.036606 a 40.838413,40.838413 0 1 1 -81.67683,0 40.838413,40.838413 0 1 1 81.67683,0 z"
     transform="matrix(0.82289092,0,0,0.82289092,110.16458,453.8318)" />
  <path
     style="opacity:0.42608696;color:#000000;fill:#000000;fill-opacity:1;fill-rule:nonzero;stroke:#a35151;stroke-width:0;stroke-linecap:round;stroke-linejoin:miter;stroke-miterlimit:4;stroke-opacity:1;stroke-dashoffset:0;marker:none;visibility:visible;display:inline;overflow:visible;enable-background:accumulate"
     d="m 366.35083,220.99145 14.52888,3.32959 -11.9944,198.4935 17.30535,81.92852 -51.97636,-0.0558 -7.59779,-92.03467 z"
     id="rect3050"
     inkscape:connector-curvature="0"
     sodipodi:nodetypes="ccccccc" />
</svg>

<svg width="580" height="580" viewBox="0 0 580 580" fill="none" xmlns="http://www.w3.org/2000/svg">
<path opacity="0.426087" d="M313.094 188.125C309.407 188.358 305.859 189.621 302.854 191.77C299.849 193.919 297.507 196.868 296.094 200.281L254.188 301.125C254.145 301.229 254.103 301.333 254.062 301.438L221.656 383.5L221.219 384.063L221.188 384.094L215.438 391.562L215.125 391.938C215.104 391.958 215.083 391.979 215.062 392L201.219 409.969C200.934 410.344 200.663 410.73 200.406 411.125L144.406 484.125H99.8438C97.2501 484.125 94.6819 484.636 92.2856 485.628C89.8894 486.621 87.7121 488.075 85.8782 489.909C84.0442 491.743 82.5894 493.921 81.5969 496.317C80.6044 498.713 80.0936 501.281 80.0938 503.875V528.875C80.0936 531.469 80.6044 534.037 81.5969 536.433C82.5894 538.829 84.0442 541.007 85.8782 542.841C87.7121 544.675 89.8894 546.129 92.2856 547.122C94.6819 548.114 97.2501 548.625 99.8438 548.625H228.531C230.743 552.331 233.219 555.837 236.062 558.969C236.84 559.825 237.561 560.561 238.188 561.188C249.641 572.649 265.636 579.906 283.125 579.906C296.254 579.906 308.6 575.805 318.719 568.938C322.081 566.656 325.214 564.04 328.094 561.156C328.706 560.543 329.429 559.839 330.219 558.969C330.934 558.181 331.607 557.398 332.219 556.656C332.699 556.074 333.289 555.34 333.969 554.438C335.14 552.88 334.896 553.159 334.125 554.188C333.969 554.396 334.271 554.001 334.156 554.156C333.337 555.26 333.119 555.565 334.344 553.906C334.354 553.906 334.365 553.906 334.375 553.906C335.607 552.233 336.68 550.421 337.75 548.625H455.25C457.844 548.625 460.412 548.114 462.808 547.122C465.204 546.129 467.382 544.675 469.216 542.841C471.05 541.007 472.504 538.829 473.497 536.433C474.489 534.037 475 531.469 475 528.875V503.875C475 501.281 474.489 498.713 473.497 496.317C472.504 493.921 471.05 491.743 469.216 489.909C467.382 488.075 465.204 486.621 462.808 485.628C460.412 484.636 457.844 484.125 455.25 484.125H401.969L392.969 441.406L392.938 441.313L388.75 420.875L394.688 325.75C394.688 325.74 394.688 325.729 394.688 325.719L400.75 225.063C401.026 220.435 399.664 215.858 396.905 212.133C394.145 208.408 390.163 205.772 385.656 204.688L318.969 188.656C317.048 188.186 315.068 188.007 313.094 188.125ZM342.125 531.75C342.123 531.736 342.593 532.59 342.75 534.188L342.656 534.156C342.49 532.786 342.127 531.763 342.125 531.75L342.125 531.75Z" fill="#8D8D8D"/>
<path d="M230.829 404.203L143.038 518.667L239.378 519.104C240.767 542.001 259.971 560.351 283.197 560.351C306.32 560.351 325.45 542.166 326.991 519.413L389.283 519.695L371.411 434.811L230.829 404.203Z" fill="#FEFEFE"/>
<path d="M314.424 208.029L272.516 308.871L239.048 393.594L230.788 404.238L371.397 434.78L368.915 422.815L375.028 324.721L381.091 224.068" fill="#E80000"/>
<path d="M254.52 354.425L238.998 393.606L216.939 422.227L375.972 456.71L368.916 422.309L371.753 377.458" fill="#FEFEFE"/>
<path d="M99.9238 516.57H455.305" stroke="black" stroke-width="25"/>
<path d="M316.803 516.401C316.803 525.314 313.262 533.862 306.96 540.164C300.658 546.466 292.11 550.007 283.197 550.007C274.285 550.007 265.737 546.466 259.435 540.164C253.132 533.862 249.592 525.314 249.592 516.401C249.592 507.489 253.132 498.941 259.435 492.639C265.737 486.336 274.285 482.796 283.197 482.796C292.11 482.796 300.658 486.336 306.96 492.639C313.262 498.941 316.803 507.489 316.803 516.401V516.401Z" fill="#FEFEFE" stroke="black" stroke-width="20.5723" stroke-miterlimit="10" stroke-linecap="round" stroke-linejoin="round"/>
<path opacity="0.426087" d="M366.351 220.991L380.88 224.321L368.885 422.814L386.191 504.743L334.214 504.687L326.616 412.652L366.351 220.991Z" fill="black"/>
</svg>
